X:1
T:Op. 169
T:Liederlust
T:Franz Lachner
T:Emil Rittershaus
T:Liederlust
T:No. 2 aus Neun Gesänge, Op. 169
T:Creative Commons Attribution Non Commercial 3.0
T:Creative Commons Attribution Non Commercial 3.0
T:Creative Commons Attribution Non Commercial 3.0
C:Franz Lachner
Z:Emil Rittershaus
Z:Creative Commons Attribution Non Commercial 3.0
%%score [ 1 2 3 4 ]
L:1/8
Q:1/4=96
M:4/4
K:A
V:1 treble nm="Sopran"
V:2 treble nm="Alt"
V:3 treble-8 nm="Tenor"
V:4 bass nm="Bass"
V:1
"^Allegro non troppo"!mf! E2 | A2 GF EBGE | AcBf e2 z!f! e | e2 ^de | geBG | %5
w: 1. Es|gibt noch auf Er- * den der|Freu- * den ge- nug, für|Jun- ge beim|Tan- * ze, für|
w: 2. Die|Al- ten, die sin- * gen die|Lie- * der im Bass und|schau- en ver-|gnüg- * ter als|
w: 3. Und|gar erst die Ju- * gend! O,|lus- * ti- ger Klang! Wo|gäb's ei- nen|Früh- * ling wohl|
 G2 F^d e2 z[Q:1/4=90]"^un poco meno mosso"!mf! e | ^e2 ^dc ^Bff"^cresc."f | %7
w: Al- te beim Krug! Doch|Freu- de für al- * le, für|
w: je in das Glas. Mild|lä- chelt von fer- * ne ver-|
w: oh- ne Ge- sang? Ja,|Freu- de für al- * le, für|
 ^e2 ^dc !fermata!f2[Q:1/4=96]"^Tempo I"!f! f2 | e6 fe | (e2 a2) B2 f2 | (E2 e2) d2 cB | %11
w: Jung und für Alt, ist|da, wo im|Krei- * se ein|Lied- * chen er- *|
w: gan- ge- nes Glück: im|Lied kehrt den|Al- * ten die|Ju- * gend zu- *|
w: Jung und für Alt, ist|da, wo im|Krei- * se ein|Lied- * chen er- *|
 c2 z2 z2!ff! e2 | e2 dc c2 BB | (A2 =g2 f2 ed |[Q:1/4=90]"^ritard." c4) B2 e2 | !fermata!A6 |] %16
w: schallt! ist|da, wo im Krei- se ein|Lied- * * * *|* chen er-|schallt!|
w: rück! im|Lied kehrt den Al- ten die|Ju- * * * *|* gend zu-|rück!|
w: schallt! ist|da, wo im Krei- se ein|Lied- * * * *|* chen er-|schallt!|
V:2
!mf! C2 | C2 CC D2 DD | CAGG A2 z!f! A | G2 FE | EBGE | C2 ^DF E2 z!mf! E | %6
w: ||||||
w: ||||||
w: ||||||
 ^E2 ^DC ^B,FF"^cresc."F | ^E2 ^DC ^B,2!f! ^B2 | c2 =BA AGFG | (A2 =G2 F2 B2- | B2 A2) F2 G2 | %11
w: |Jung und für Alt, ist|da, wo im Krei- * se ein|Lied- * * *|* * chen er-|
w: |gan- ge- nes Glück: im|Lied kehrt den Al- * ten die|Ju- * * *|* * gend zu-|
w: |Jung und für Alt, ist|da, wo im Krei- * se ein|Lied- * * *|* * chen er-|
 A2 z2 z2!ff! c2 | c2 BA A2 GG | (A2 e2 d2 cB | A4) G2 G2 | !fermata!E6 |] %16
w: schallt! ist|da, wo im Krei- se ein|Lied- * * * *|* chen er-|schallt!|
w: rück! im|Lied kehrt den Al- ten die|Ju- * * * *|* gend zu-|rück!|
w: schallt! ist|da, wo im Krei- se ein|Lied- * * * *|* chen er-|schallt!|
V:3
!mf! E2 | E2 GA BGEB | AedB c2 z!f! c | c2 cc | BgeB | ^A2 =AA G2 z!mf! G | %6
w: 1. Es|gibt noch auf Er- * den der|Freu- * den ge- nug, für|Jun- ge beim|Tan- * ze, für|Al- te beim Krug! Doch|
w: 2. Die|Al- ten, die sin- * gen die|Lie- * der im Bass und|schau- en ver-|gnüg- * ter als|je in das Glas. Mild|
w: 3. Und|gar erst die Ju- * gend! O,|lus- * ti- ger Klang! Wo|gäb's ei- nen|Früh- * ling wohl|oh- ne Ge- sang? Ja,|
 G2 F^E ^DG^A"^cresc."^B | cGF^E !fermata!^D2!f! ^d2 | c4 =d2 d2 | e4 f2 ed | (d2 c2) B2 ed | %11
w: Freu- de für al- * le, für|Jung * und für Alt, ist|da, wo im|Krei- se ein *|Lied- * chen er- *|
w: lä- chelt von fer- * ne ver-|gan- * ge- nes Glück: im|Lied kehrt den|Al- ten die *|Ju- * gend zu- *|
w: Freu- de für al- * le, für|Jung * und für Alt, ist|da, wo im|Krei- se ein *|Lied- * chen er- *|
 c2!ff! e2 e4- | e6 fe | (e2 a2) B2 f2 | (E2 e2) d2 cB | !fermata!c6 |] %16
w: schallt! ist da,|_ wo im|Krei- * se ein|Lied- * chen er- *|schallt!|
w: rück! im Lied|_ kehrt den|Al- * ten die|Ju- * gend zu- *|rück!|
w: schallt! ist da,|_ wo im|Krei- * se ein|Lied- * chen er- *|schallt!|
V:4
!mf! A,,2 | A,,2 A,,A,, A,,2 A,,A,, | A,,A,A,A, A,2 z!f! A, | ^A,2 A,A, | B,2 B,,B,, | %5
w: |||||
w: |||||
w: |||||
 B,,2 B,,B,, E,2 z!mf! E, | C,2 C,C, G,,2 G,,"^cresc."G,, | C,2 C,C, G,,2!f! G,2 | A,4 B,2 B,2 | %9
w: ||Jung und für Alt, ist|da, wo im|
w: ||gan- ge- nes Glück: im|Lied kehrt den|
w: ||Jung und für Alt, ist|da, wo im|
 C4 D2 D,2 | E,4 E,2 E,2 | A,2 z2 z2!ff! A,2 | A,2 B,C D2 D,D, | (C,4 D,4 | E,4) E,2 E,2 | %15
w: Krei- se ein|Lied- chen er-|schallt! ist|da, wo im Krei- se ein|Lied- *|* chen er-|
w: Al- ten die|Ju- gend zu-|rück! im|Lied kehrt den Al- ten die|Ju- *|* gend zu-|
w: Krei- se ein|Lied- chen er-|schallt! ist|da, wo im Krei- se ein|Lied- *|* chen er-|
 !fermata!A,6 |] %16
w: schallt!|
w: rück!|
w: schallt!|

